X: 12204
T: Factory Smoke, The
R: hornpipe
M: 4/4
K: Eminor
|:BA|GFE^D EFGA|(3BeBE2 E>efe|dcBA GABG|(3ABA (3GFE DcBA|
GFE^D EFGA|Be (3^def e2e>B|cBAG AcBA|(3GAG E2 [1 E>c:|2 E>B||
|:ef|geBG eBGE|B,EGB ef (3gfe|fdAF dAFD|A,DFA BAGF|
GFE^D EFGA|Be (3^def e2e>B|cBAG AcBA|(3GAG E2 [1 E>B:|2 E>c||

